X: 2033
T: CHAILLEACH OIDHCHE
R: Strathspey.
%R: strathspey
B: James Kerr "Merry Melodies" v.2 p.6 #33
Z: 2016 John Chambers <jc:trillian.mit.edu>
M: C
L: 1/8
%%slurgraces yes
%%graceslurs yes
K: A
ue |\
vA<uAve>uA vf<uAve>u=g | =G<Gd>B =g>edB |\
A<Ae>A f<Ae>u=g | =G<G B>d e>A A ::\
ug |\
{g}a2 ue>ug va>uevc>uA |
=g2 d>g B>g(B<=G) |\
[1 a2 e>g a>ec>A | B<=G B<d e<A A :|\
[2 A>B=c>d e>dB>=g | =G>AB>d e<A A |]

%%sep 1 1 500
%%sep 1 1 500

